X:1007
T:Ash Grove, The
R:Waltz
C:Trad.
O:Wales
M:3/4
L:1/8
Q:1/4=100
K:G
"D"D2|"G"G2B2dc|B2G2G2|"C"A2cBAG|"D"F2D2D2|"G"G2BAGF|"C"E2C2E2|"G"D2G2"D"F2|"G"G4:|
|:Bc||"G"d2Bcde|d2c2B2|"D7"c2ABcd|c2B2A2|"G"B2GABc|"Em"B2A2G2|"D"F2d2"A"^c2|"D"d4D2|
"G"G2B2dc|B2G2G2|"C"A2cBAG|"D"F2D2D2|"G"G2BAGF|"C"E2C2E2|"G"D2G2"D"F2|"G"G4:|

